X: 62
T: Hyllytyst\"a
O: Finland
S: printed copy of unknown origin
Z: 2013 John Chambers <jc:trillian.mit.edu>
M: 2/4
L: 1/8
K: D
[|\
F>F FF | AA G2 | G>G GG | BB A2 |\
A>A FD | BB B2 | c>c Bc | dd d2 |]
[|\
c>c cB | A>A AF | G>G GE | DF A2 |\
c>c cB | A>A AA | c>c Bc | dd d2 |]
|: fe/d/ ce | gf/e/ df | e/d/c/d/ e>c | dd d2 :|
